icons/user-6-line.svg

<svg xmlns="http://www.w3.org/2000/svg" width="24" height="24" fill="none"><g clip-path="url(#a)"><g><path fill="#121212" d="M11.9996 17C15.6616 17 18.8646 18.575 20.6066 20.925L18.7646 21.796C17.3466 20.116 14.8466 19 11.9996 19C9.15255 19 6.65255 20.116 5.23455 21.796L3.39355 20.924C5.13555 18.574 8.33755 17 11.9996 17ZM11.9996 2C13.3256 2 14.5974 2.52678 15.5351 3.46447C16.4728 4.40215 16.9996 5.67392 16.9996 7V10C16.9995 11.2885 16.502 12.5272 15.6109 13.4578C14.7198 14.3884 13.5038 14.9391 12.2166 14.995L11.9996 15C10.6735 15 9.4017 14.4732 8.46402 13.5355C7.52634 12.5979 6.99955 11.3261 6.99955 10V7C6.99963 5.71154 7.4971 4.47284 8.38821 3.54222C9.27933 2.61161 10.4953 2.06092 11.7826 2.005L11.9996 2ZM11.9996 4C11.2343 3.99996 10.498 4.29233 9.94129 4.81728C9.38455 5.34224 9.04945 6.06011 9.00455 6.824L8.99955 7V10C8.9988 10.7809 9.30257 11.5313 9.84633 12.0918C10.3901 12.6523 11.1309 12.9787 11.9115 13.0016C12.6921 13.0245 13.4508 12.7422 14.0265 12.2145C14.6022 11.6869 14.9495 10.9556 14.9946 10.176L14.9996 10V7C14.9996 6.20435 14.6835 5.44129 14.1209 4.87868C13.5583 4.31607 12.7952 4 11.9996 4Z"/></g></g><defs><clipPath id="a"><rect width="24" height="24" fill="white"/></clipPath></defs></svg>

<svg width="24" height="24" fill="none" xmlns="http://www.w3.org/2000/svg"><g clip-path="url(#a)"><path d="M12 17c3.662 0 6.865 1.575 8.607 3.925l-1.842.871C17.347 20.116 14.847 19 12 19c-2.847 0-5.347 1.116-6.765 2.796l-1.841-.872C5.136 18.574 8.338 17 12 17Zm0-15a5 5 0 0 1 5 5v3a5 5 0 0 1-4.783 4.995L12 15a5 5 0 0 1-5-5V7a5 5 0 0 1 4.783-4.995L12 2Zm0 2a3 3 0 0 0-2.995 2.824L9 7v3a3 3 0 0 0 5.995.176L15 10V7a3 3 0 0 0-3-3Z" /></g><defs><clipPath id="a"><path fill="#fff" d="M0 0h24v24H0z"/></clipPath></defs></svg>
